X: 2109
T: The Hunter's Purse
B: nick
B: to learn
M:4/4
Q: 1/4=100
K:Adorian
V:1 
ed|:cAAB AGEF|GFAF GFED|cBcd eged|cdef gedg|
 eAAB AGEF|GFAF GFED|cBcd eged|1 (3cBA BG A2 ed:|2 (3cBA BG A2 cd||
 |:eaab aged|cdef gedB|cBcd eged|cdef gedg|
 eaab aged|cdef gedB|cBcd eged|1 (3cBA BG A2 cd:|2 (3cBA BG A4||
% abcbook-tune_id 6345617f260e2d7e211cd776


% abcbook-boost 0
% abcbook-tablature 
% abcbook-transpose 
% abcbook-lastupdated 1666006625249
% abcbook-soundfonts 
% abcbook-repeats 3


